X: 26497
T: Michael Joseph Dunne
R: hornpipe
M: 4/4
K: Dmajor
~|G>AB>c d>ef>d|e>AB>c d2:|
~|G>AB>c d>ef>g|e>Ac>A d2:|
~|G2 (3ABc d2 (3efg|e>A (3cBA d2:|
~|.G2 .c2 .d2 (3efg|e>AF>A D2:|

